X:100
T:Smash the Windows
T:Roaring Jelly
S:One Thousand English Country Dance Tunes, Michael Raven
R:jig
M:6/8
L:1/8
K:D
D2D F2A | d2f ecA | G2B F2A | E2F GFE | D2D F2A |
d2f ecA | Bgf edc |1 d3 d3 :|2 d3 d2a |: a2f d2f | A2a agf | g2e c2e |
A2g gfe | f2d g2e | a2f bag | f2f gfe |1 d3 d2a :|2 d3 d3 |]
